icons/default/Move.svg

<path
	d="M16.8679 8.25146L16.7351 8.11865V8.10205H16.7185L14.5769 6.14307C14.4994 6.06559 14.4054 6.02686 14.2947 6.02686C14.184 6.02686 14.0899 6.06559 14.0125 6.14307L13.9128 6.27588C13.8464 6.35335 13.8188 6.44189 13.8298 6.5415C13.8409 6.64111 13.8852 6.72965 13.9626 6.80713L15.241 7.96924H9.06519V1.76025L10.2273 3.03857C10.3048 3.11605 10.3933 3.16032 10.4929 3.17139C10.5925 3.18245 10.6811 3.15479 10.7585 3.08838L10.8914 2.98877C10.9688 2.9113 11.0076 2.81722 11.0076 2.70654C11.0076 2.59587 10.9688 2.50179 10.8914 2.42432L9.01538 0.365723C8.97111 0.277181 8.9047 0.205241 8.81616 0.149902L8.78296 0.133301C8.71655 0.0558268 8.63078 0.0170898 8.52563 0.0170898C8.42049 0.0170898 8.32918 0.0558268 8.25171 0.133301L8.1189 0.266113L8.10229 0.282715L6.19312 2.39111C6.11564 2.46859 6.0769 2.56266 6.0769 2.67334C6.0769 2.78402 6.11564 2.87809 6.19312 2.95557L6.32593 3.05518C6.34806 3.07731 6.3702 3.09391 6.39233 3.10498C6.41447 3.11605 6.43937 3.12435 6.46704 3.12988C6.49471 3.13542 6.52238 3.13818 6.55005 3.13818C6.57772 3.13818 6.60539 3.13542 6.63306 3.12988C6.66073 3.12435 6.6884 3.11605 6.71606 3.10498C6.74373 3.09391 6.76864 3.08008 6.79077 3.06348C6.81291 3.04688 6.83504 3.02751 6.85718 3.00537L8.00269 1.72705V7.95264H1.7605L3.03882 6.80713C3.11629 6.72965 3.16056 6.64111 3.17163 6.5415C3.1827 6.44189 3.15503 6.35335 3.08862 6.27588L2.98901 6.14307C2.94474 6.08773 2.88664 6.05176 2.8147 6.03516C2.74276 6.01855 2.67358 6.01855 2.60718 6.03516C2.54077 6.05176 2.4799 6.08773 2.42456 6.14307L0.365967 8.01904C0.277425 8.06331 0.205485 8.12972 0.150146 8.21826L0.133545 8.25146C0.056071 8.31787 0.017334 8.40365 0.017334 8.50879C0.017334 8.61393 0.056071 8.70524 0.133545 8.78271L0.266357 8.91553L0.282959 8.93213L2.39136 10.8413C2.4467 10.8856 2.50757 10.9188 2.57397 10.9409C2.64038 10.9631 2.70955 10.9631 2.78149 10.9409C2.85343 10.9188 2.91154 10.8856 2.95581 10.8413L3.05542 10.7085C3.09969 10.6642 3.12736 10.6089 3.13843 10.5425C3.1495 10.4761 3.14119 10.4097 3.11353 10.3433C3.08586 10.2769 3.04989 10.2215 3.00562 10.1772L1.71069 9.03174H8.00269V15.2739L6.85718 13.9956C6.7797 13.9181 6.69116 13.8739 6.59155 13.8628C6.49194 13.8517 6.4034 13.8794 6.32593 13.9458L6.19312 14.0454C6.14884 14.0897 6.11564 14.1478 6.09351 14.2197C6.07137 14.2917 6.07137 14.3608 6.09351 14.4272C6.11564 14.4937 6.14884 14.5545 6.19312 14.6099L8.10229 16.7183L8.1189 16.7349L8.25171 16.8677C8.32918 16.9451 8.42049 16.9839 8.52563 16.9839C8.63078 16.9839 8.71655 16.9451 8.78296 16.8677L8.91577 16.7349C8.92684 16.7349 8.93237 16.7321 8.93237 16.7266V16.7183L10.8914 14.5767C10.9688 14.4992 11.0076 14.4051 11.0076 14.2944C11.0076 14.1838 10.9688 14.0897 10.8914 14.0122L10.7585 13.9126C10.6811 13.8462 10.5925 13.8185 10.4929 13.8296C10.3933 13.8407 10.3048 13.8849 10.2273 13.9624L9.08179 15.2407V9.03174H15.2742L13.9958 10.1772C13.9184 10.2547 13.8741 10.3433 13.863 10.4429C13.852 10.5425 13.8796 10.631 13.946 10.7085L14.0457 10.8413C14.0899 10.8856 14.148 10.9188 14.22 10.9409C14.2919 10.9631 14.3611 10.9631 14.4275 10.9409C14.4939 10.9188 14.5548 10.8856 14.6101 10.8413L16.7185 8.93213C16.7185 8.92106 16.724 8.91553 16.7351 8.91553L16.8679 8.78271C16.9454 8.70524 16.9841 8.61393 16.9841 8.50879C16.9841 8.40365 16.9454 8.31787 16.8679 8.25146Z"
	fill="black" />

<path d="m16.868 8.251-.133-.132v-.017h-.017l-2.141-1.959a.384.384 0 0 0-.282-.116.384.384 0 0 0-.283.116l-.1.133a.336.336 0 0 0-.082.266c.01.1.055.188.133.265L15.24 7.97H9.065V1.76l1.162 1.279a.437.437 0 0 0 .266.132c.1.011.188-.016.265-.083l.133-.1a.385.385 0 0 0 .117-.281.385.385 0 0 0-.117-.283L9.015.366A.533.533 0 0 0 8.816.15L8.783.133a.323.323 0 0 0-.257-.116.375.375 0 0 0-.274.116l-.133.133-.017.017L6.193 2.39a.384.384 0 0 0-.116.282c0 .111.039.205.116.283l.133.1a.26.26 0 0 0 .141.074.422.422 0 0 0 .39-.125l1.146-1.278v6.226H1.76l1.278-1.146a.437.437 0 0 0 .133-.266.336.336 0 0 0-.083-.265l-.1-.133a.304.304 0 0 0-.174-.108.392.392 0 0 0-.39.108L.366 8.02a.533.533 0 0 0-.216.2l-.016.032a.323.323 0 0 0-.117.258c0 .105.04.196.117.274l.132.133.017.016 2.108 1.91a.587.587 0 0 0 .183.099.332.332 0 0 0 .207 0 .412.412 0 0 0 .175-.1l.1-.132a.297.297 0 0 0 .082-.166.357.357 0 0 0-.024-.2.508.508 0 0 0-.108-.166L1.71 9.032h6.292v6.242l-1.146-1.278a.437.437 0 0 0-.265-.133.335.335 0 0 0-.266.083l-.133.1a.413.413 0 0 0-.1.174.332.332 0 0 0 0 .207.588.588 0 0 0 .1.183l1.91 2.108.016.017.133.133a.375.375 0 0 0 .274.116c.105 0 .19-.039.257-.116l.133-.133c.01 0 .016-.003.016-.008v-.009l1.96-2.141a.385.385 0 0 0 .116-.283.385.385 0 0 0-.117-.282l-.133-.1a.335.335 0 0 0-.265-.082.437.437 0 0 0-.266.132l-1.145 1.279V9.03h6.192l-1.278 1.146a.438.438 0 0 0-.133.266c-.011.1.017.188.083.266l.1.132a.411.411 0 0 0 .174.1.331.331 0 0 0 .207 0 .586.586 0 0 0 .183-.1l2.108-1.909c0-.01.006-.016.017-.016l.133-.133a.375.375 0 0 0 .116-.274.323.323 0 0 0-.116-.258Z"/>
